static/images/mobile/copyright/wikimedia-wordmark.svg

<svg xmlns="http://www.w3.org/2000/svg" width="183" height="40"><path d="M9.621 12.594 13.502 0h5.088l3.849 12.594L26.777 0h5.283l-7.632 21.892h-3.62L16.014 6.656l-4.762 15.236h-3.62L0 0h5.284l4.337 12.594zM34.702 0h4.892v21.892h-4.892V0zM44.975 0h4.893v9.005L58.119 0h6.034l-8.708 9.69c.75 1.044 2.152 3.002 4.174 5.84 2.022 2.839 3.523 4.959 4.534 6.362h-5.708l-6.425-8.646-2.185 2.447v6.199h-4.892V0zM67.186 0h4.892v21.892h-4.892V0zM97.061 8.124l-5.903 11.974h-2.903L82.384 8.124v13.768h-4.892V0h6.621l5.642 12.039L95.43 0h6.588v21.892h-4.892V8.124zM123.12 0v4.339h-10.893v4.535h9.784v4.177h-9.784v4.535h11.252v4.306h-16.112V0h15.753zM144.515 2.871c2.087 1.925 3.131 4.568 3.131 7.961 0 3.393-1.011 6.101-3.066 8.091-2.022 1.991-5.153 2.969-9.328 2.969h-7.468V0h7.729c3.947 0 6.915.979 9.002 2.871zm-3.555 13.018c1.207-1.142 1.794-2.773 1.794-4.927 0-2.153-.587-3.817-1.794-4.959-1.207-1.174-3.033-1.729-5.512-1.729h-2.74v13.312h3.099c2.218 0 3.946-.555 5.153-1.697zM151.886 0h4.892v21.892h-4.892V0zM177.749 21.892l-2.022-4.73h-9.165l-2.022 4.73h-5.186L168.813 0h4.729L183 21.892h-5.251zm-6.621-15.367-2.739 6.362h5.479l-2.74-6.362z"/><g><path d="M8.904 31.843v2.643h4.24v1.501h-4.24v3.948H7.273v-9.592h6.392v1.5H8.904zM31.799 38.564c-.978.947-2.152 1.403-3.587 1.403s-2.61-.456-3.588-1.403c-.978-.946-1.468-2.12-1.468-3.523s.49-2.578 1.468-3.524c.978-.946 2.153-1.403 3.588-1.403s2.609.457 3.587 1.403c.979.946 1.468 2.121 1.468 3.524s-.489 2.577-1.468 3.523zm-1.174-5.97c-.652-.685-1.468-1.012-2.413-1.012-.946 0-1.762.327-2.414 1.012a3.428 3.428 0 0 0-.978 2.447c0 .979.326 1.794.978 2.447.652.652 1.468 1.011 2.414 1.011.945 0 1.761-.326 2.413-1.011a3.428 3.428 0 0 0 .978-2.447c0-.979-.326-1.795-.978-2.447zM45.66 37.716c.424.522 1.044.783 1.794.783s1.337-.261 1.794-.783c.457-.522.652-1.207.652-2.088V30.31h1.631v5.383c0 1.371-.391 2.447-1.142 3.198-.75.75-1.728 1.109-2.902 1.109-1.174 0-2.153-.359-2.903-1.109-.75-.751-1.141-1.795-1.141-3.198V30.31h1.63v5.318c-.065.881.163 1.566.587 2.088zM69.436 30.31h1.631v9.592h-1.761l-5.414-6.982v6.982h-1.631V30.31h1.631l5.577 7.145V30.31zM89.168 31.582c.913.849 1.37 1.991 1.37 3.491 0 1.501-.457 2.676-1.337 3.524-.881.881-2.251 1.305-4.11 1.305h-3.163V30.31h3.294c1.696 0 3.033.424 3.946 1.272zm-.228 3.524c0-2.186-1.272-3.295-3.751-3.295h-1.631v6.558h1.794c1.174 0 2.055-.261 2.675-.816.587-.555.913-1.37.913-2.447zM102.214 37.716l-.946 2.186h-1.729l4.208-9.592h1.728l4.208 9.592h-1.729l-.946-2.186h-4.794zm4.142-1.501-1.729-3.947-1.728 3.947h3.457zM122.109 31.811v8.091h-1.631v-8.091h-2.903v-1.468h7.436v1.468h-2.902zM134.991 30.31h1.631v9.592h-1.631V30.31zM155.473 38.564c-.978.947-2.152 1.403-3.587 1.403s-2.609-.456-3.588-1.403c-.978-.946-1.467-2.12-1.467-3.523s.489-2.578 1.467-3.524c.979-.946 2.153-1.403 3.588-1.403s2.609.457 3.587 1.403c.979.946 1.468 2.121 1.468 3.524s-.489 2.577-1.468 3.523zm-1.174-5.97c-.652-.685-1.467-1.012-2.413-1.012-.946 0-1.761.327-2.414 1.012a3.428 3.428 0 0 0-.978 2.447c0 .979.326 1.794.978 2.447.653.652 1.468 1.011 2.414 1.011.946 0 1.761-.326 2.413-1.011a3.424 3.424 0 0 0 .979-2.447c0-.979-.326-1.795-.979-2.447zM174.357 30.31h1.631v9.592h-1.761l-5.414-6.982v6.982h-1.631V30.31h1.631l5.577 7.145V30.31z"/></g></svg>

<?xml version="1.0" encoding="UTF-8"?>
<svg version="1.1" xmlns="http://www.w3.org/2000/svg" xmlns:xlink="http://www.w3.org/1999/xlink" x="0" y="0" width="183" height="40" viewBox="0 0 183 40">
  <title>Wikimedia foundation wordmark</title>
  <g id="wikimedia-foundation">
    <g id="wikimedia">
      <path d="M9.621,12.594 L13.502,0 L18.59,0 L22.439,12.594 L26.777,0 L32.06,0 L24.428,21.892 L20.808,21.892 L16.014,6.656 L11.252,21.892 L7.632,21.892 L0,0 L5.284,0 L9.621,12.594 z" fill="#000000"/>
      <path d="M34.702,0 L39.594,0 L39.594,21.892 L34.702,21.892 L34.702,0 z" fill="#000000"/>
      <path d="M44.975,0 L49.868,0 L49.868,9.005 L58.119,0 L64.153,0 L55.445,9.69 C56.195,10.734 57.597,12.692 59.619,15.53 C61.641,18.369 63.142,20.489 64.153,21.892 L58.445,21.892 L52.02,13.246 L49.835,15.693 L49.835,21.892 L44.943,21.892 L44.943,0 z" fill="#000000"/>
      <path d="M67.186,0 L72.078,0 L72.078,21.892 L67.186,21.892 L67.186,0 z" fill="#000000"/>
      <path d="M97.061,8.124 L91.158,20.098 L88.255,20.098 L82.384,8.124 L82.384,21.892 L77.492,21.892 L77.492,0 L84.113,0 L89.755,12.039 L95.43,0 L102.018,0 L102.018,21.892 L97.126,21.892 L97.126,8.124 z" fill="#000000"/>
      <path d="M123.12,0 L123.12,4.339 L112.227,4.339 L112.227,8.874 L122.011,8.874 L122.011,13.051 L112.227,13.051 L112.227,17.586 L123.479,17.586 L123.479,21.892 L107.367,21.892 L107.367,0 L123.12,0 z" fill="#000000"/>
      <path d="M144.515,2.871 C146.602,4.796 147.646,7.439 147.646,10.832 C147.646,14.225 146.635,16.933 144.58,18.923 C142.558,20.914 139.427,21.892 135.252,21.892 L127.784,21.892 L127.784,0 L135.513,0 C139.46,0 142.428,0.979 144.515,2.871 z M140.96,15.889 C142.167,14.747 142.754,13.116 142.754,10.962 C142.754,8.809 142.167,7.145 140.96,6.003 C139.753,4.829 137.927,4.274 135.448,4.274 L132.708,4.274 L132.708,17.586 L135.807,17.586 C138.025,17.586 139.753,17.031 140.96,15.889 z" fill="#000000"/>
      <path d="M151.886,0 L156.778,0 L156.778,21.892 L151.886,21.892 L151.886,0 z" fill="#000000"/>
      <path d="M177.749,21.892 L175.727,17.162 L166.562,17.162 L164.54,21.892 L159.354,21.892 L168.813,0 L173.542,0 L183,21.892 L177.749,21.892 z M171.128,6.525 L168.389,12.887 L173.868,12.887 L171.128,6.525 z" fill="#000000"/>
    </g>
    <g id="foundation">
      <path d="M8.904,31.843 L8.904,34.486 L13.144,34.486 L13.144,35.987 L8.904,35.987 L8.904,39.935 L7.273,39.935 L7.273,30.343 L13.665,30.343 L13.665,31.843 L8.904,31.843 z" fill="#000000"/>
      <path d="M31.799,38.564 C30.821,39.511 29.647,39.967 28.212,39.967 C26.777,39.967 25.602,39.511 24.624,38.564 C23.646,37.618 23.156,36.444 23.156,35.041 C23.156,33.638 23.646,32.463 24.624,31.517 C25.602,30.571 26.777,30.114 28.212,30.114 C29.647,30.114 30.821,30.571 31.799,31.517 C32.778,32.463 33.267,33.638 33.267,35.041 C33.267,36.444 32.778,37.618 31.799,38.564 z M30.625,32.594 C29.973,31.909 29.157,31.582 28.212,31.582 C27.266,31.582 26.45,31.909 25.798,32.594 C25.146,33.279 24.82,34.095 24.82,35.041 C24.82,36.02 25.146,36.835 25.798,37.488 C26.45,38.14 27.266,38.499 28.212,38.499 C29.157,38.499 29.973,38.173 30.625,37.488 C31.277,36.803 31.603,35.987 31.603,35.041 C31.603,34.062 31.277,33.246 30.625,32.594 z" fill="#000000"/>
      <path d="M45.66,37.716 C46.084,38.238 46.704,38.499 47.454,38.499 C48.204,38.499 48.791,38.238 49.248,37.716 C49.705,37.194 49.9,36.509 49.9,35.628 L49.9,30.31 L51.531,30.31 L51.531,35.693 C51.531,37.064 51.14,38.14 50.389,38.891 C49.639,39.641 48.661,40 47.487,40 C46.313,40 45.334,39.641 44.584,38.891 C43.834,38.14 43.443,37.096 43.443,35.693 L43.443,30.31 L45.073,30.31 L45.073,35.628 C45.008,36.509 45.236,37.194 45.66,37.716 z" fill="#000000"/>
      <path d="M69.436,30.31 L71.067,30.31 L71.067,39.902 L69.306,39.902 L63.892,32.92 L63.892,39.902 L62.261,39.902 L62.261,30.31 L63.892,30.31 L69.469,37.455 L69.469,30.31 z" fill="#000000"/>
      <path d="M89.168,31.582 C90.081,32.431 90.538,33.573 90.538,35.073 C90.538,36.574 90.081,37.749 89.201,38.597 C88.32,39.478 86.95,39.902 85.091,39.902 L81.928,39.902 L81.928,30.31 L85.222,30.31 C86.918,30.31 88.255,30.734 89.168,31.582 z M88.94,35.106 C88.94,32.92 87.668,31.811 85.189,31.811 L83.558,31.811 L83.558,38.369 L85.352,38.369 C86.526,38.369 87.407,38.108 88.027,37.553 C88.614,36.998 88.94,36.183 88.94,35.106 z" fill="#000000"/>
      <path d="M102.214,37.716 L101.268,39.902 L99.539,39.902 L103.747,30.31 L105.475,30.31 L109.683,39.902 L107.954,39.902 L107.008,37.716 L102.214,37.716 z M106.356,36.215 L104.627,32.268 L102.899,36.215 L106.356,36.215 z" fill="#000000"/>
      <path d="M122.109,31.811 L122.109,39.902 L120.478,39.902 L120.478,31.811 L117.575,31.811 L117.575,30.343 L125.011,30.343 L125.011,31.811 L122.109,31.811 z" fill="#000000"/>
      <path d="M134.991,30.31 L136.622,30.31 L136.622,39.902 L134.991,39.902 L134.991,30.31 z" fill="#000000"/>
      <path d="M155.473,38.564 C154.495,39.511 153.321,39.967 151.886,39.967 C150.451,39.967 149.277,39.511 148.298,38.564 C147.32,37.618 146.831,36.444 146.831,35.041 C146.831,33.638 147.32,32.463 148.298,31.517 C149.277,30.571 150.451,30.114 151.886,30.114 C153.321,30.114 154.495,30.571 155.473,31.517 C156.452,32.463 156.941,33.638 156.941,35.041 C156.941,36.444 156.452,37.618 155.473,38.564 z M154.299,32.594 C153.647,31.909 152.832,31.582 151.886,31.582 C150.94,31.582 150.125,31.909 149.472,32.594 C148.82,33.279 148.494,34.095 148.494,35.041 C148.494,36.02 148.82,36.835 149.472,37.488 C150.125,38.14 150.94,38.499 151.886,38.499 C152.832,38.499 153.647,38.173 154.299,37.488 C154.952,36.803 155.278,35.987 155.278,35.041 C155.278,34.062 154.952,33.246 154.299,32.594 z" fill="#000000"/>
      <path d="M174.357,30.31 L175.988,30.31 L175.988,39.902 L174.227,39.902 L168.813,32.92 L168.813,39.902 L167.182,39.902 L167.182,30.31 L168.813,30.31 L174.39,37.455 L174.39,30.31 z" fill="#000000"/>
    </g>
  </g>
</svg>
